X:1
T:Mein gedancken thun mich
T:Giovanni Giacomo Gastoldi
T:Source : Tricinia---Johann-Jacob Gastoldi und anderer Autorn---Nürnberg---P.Kauffmann---1607. Editor : André Vierendeels (13/03/17).
T:Notes : Original clefs : C1, C1, F4 Dotted brackets indicate black notes Text Middle German by Valentin Hauszmann
T:Mein gedancken thun mich
T:©
T:©
T:©
C:Giovanni Giacomo Gastoldi
Z:©
%%score [ 1 2 3 ]
L:1/8
Q:1/4=100
M:4/4
K:C
V:1 treble nm="Soprano 1" snm="S 1"
V:2 treble nm="Soprano 2" snm="S 2"
V:3 bass nm="Bass" snm="B"
V:1
 d4 B3 c | d2 e2 d4 | d2 B2 c3 c | c2 B2 A4 | A4 B4 | c4 e4 | d8 | d4 c4- | c2 B2 B2 AG | A8 | %10
w: Mein g'dan- cken|thun mich zwin-|gen, ich musz ein|Lied- lein sin-|gen, köndt|ichs nur|wol|an- brin-|||
w: Ich lieb sie|heur als fer-|den, weisz nicht ihrs|gleich auff Er-|den, an|zucht und|an|ge- ber-|||
 B8 ::[M:6/4] d4 c2 B3 B B2 | c4 B2 c3 c B2 |[M:4/4] A3 B c4 | B4 z2 e2 | e2 d2 c2 B2 | %16
w: gen,|dasz es ei- ner thet,|dasz es ei- ner thet|g'fal- * *|len die|ich mir wünsch für|
w: den,|ein gar hit- zi- ges,|ein gar hit- zi- ges|Her- * *|ze, ist|sie zu schimpff und|
 AGFE D2 d2- | d2 cB A4 | B8 :| %19
w: al- * * * * *||len.|
w: scher- * * * * *||ze.|
V:2
 B4 d3 c | B2 c2 B4 | B2 G2 A3 G | A2 G2 ^F4 | ^F4 G4- | G4 c4- | c4 B4- | B4 A4 | A4 G4- | %9
w: Mein g'dan- cken|thun mich zwin-|gen, ich musz ein|Lied- lein sin-|gen, köndt|_ ichs|_ nur|_ wol|an- brin-|
w: Dar- umb musz|ich sie prei-|sen, ihr tu- gend|thut mirs heis-|sen, der|_ sie|_ sich|_ thut|be- fleis-|
 G2 ^FE F4 | G8 ::[M:6/4] B4 c2 d3 d d2 | e4 d2 e3 e d2 |[M:4/4] c3 B A4 | ^G4 z2 c2 | %15
w: |gen,|dasz es ei- ner thet,|dasz es ei- ner thet|g'fal- * *|len, die|
w: |sen,|Ach das lieb- li- che,|ach das lieb- li- che|brön- * *|lein, nimmt|
 c2 B2 A2 G2 | FEFG AGAB | A2 G4 ^F2 | G8 :| %19
w: ich mir wünsch für|al- * * * * * * *||len.|
w: tag und nacht mein|Hertz _ _ _ _ _ _ _|_ _ _|ein.|
V:3
 G,4 G,3 A, | G,2 C,2 G,4 | G,2 G,2 F,3 E, | F,2 G,2 D,4 | D,4 G,,4 | C,4 A,,4 | B,,8- | B,,4 C,4 | %8
w: Mein g'dan- cken|thun mich zwin-|gen, ich musz ein|Lied- lein sin-|gen, köndt|ichs nur|wol|_ an-|
w: Sie ist mein|Schatz, mein Le-|ben, ihe hab ich|mich er- ge-|ben, und|sag noch|mehr|_ hien-|
 D,8- | D,8 | G,,8 ::[M:6/4] G,4 A,2 G,3 G, G,2 | C,4 G,2 C,3 C, G,,2 |[M:4/4] A,,8 | E,4 C,4 | %15
w: brin-||gen,|dasz es ei- ner thet,|dasz es ei- ner thet|g'fal-|len, die|
w: e-||be,|in ihrm dienst will ich,|in ihrm dienst will ich|ster-|ben, wenn|
 C,4 C,4 | D,4 D,4 | D,8 | G,,8 :| %19
w: ich mir|wünsch für|al-|len.|
w: ich sie|kan er|wer-|ben.|

